!!!!SEGMENT: pl-sa--237-a-vi-41--001-002_fils-anton--symfonia-in-d-andante.krn
!!!cenid: 17xx:606
!!!COM: Fils, Anton
!!!COM-rismID: pe30001067
!!!CDT: <1733/09/22-<1760/03/14
!!!CNT: German
!!!OPR: Symfonia in D
!!!OTL: Andante
!!!OMV: 002
!!!PDT:
!!!AGN: Secular
!!!YEC: Copyright 2022 Narodowy Instytut Fryderyka Chopina (https://polishscores.org)
!!!YEM: License CC-BY-4.0 (https://creativecommons.org/licenses/by/4.0)
!!!SMS-siglum: PL-SA
!!!SMS-shelfmark: 237/A VI 41
!!!SMS-shelfwork: 001-002 M
!!!SMS-variant:
!!!SMS-altvar:
!!!NIFC-rismSourceID: 1001035310
!!!NIFC-rismChildID: 1001035310
!!!NIFC-islandoraID: none
!!!URL-pdf-islandora:
!!!URL-scan: https://bc.bdsandomierz.pl/dlibra/publication/1590/edition/1558/content @EN{Scan in the Sandomierz Diocese Digital Library} @PL{Skany w portalu Cyfrowa Biblioteka Diecezjalna w Sandomierzu}
!!!IIIF:
!!!ONB-nifc: UWAGA: części Symfonii: Allegro, Andante, Menuet, Presto
!!!AIN: 1 empty 2 flt 2 violn
!!!key:
**kern	**dynam	**kern	**dynam	**kern	**dynam	**kern	**kern
*part5	*	*part4	*	*part3	*	*part2	*part1
*staff5	*	*staff4	*	*staff3	*	*staff2	*staff1
*Iempty	*	*Ivioln	*	*Ivioln	*	*Iflt	*Iflt
*I"Baſso	*	*I"Violino Secundo	*	*I"Violino Primo	*	*I"Flauto Secundo	*I"Flauto Primo
*I'b	*	*I'vn 2	*	*I'vn 1	*	*I'fl 2	*I'fl 1
*clefF4	*	*clefG2	*	*clefG2	*	*clefG2	*clefG2
*k[f#]	*	*k[f#]	*	*k[f#]	*	*k[f#]	*k[f#]
*G:	*	*G:	*	*G:	*	*G:	*G:
*M2/4	*	*M2/4	*	*M2/4	*	*M2/4	*M2/4
!LO:TX:a:t=P:problem=wszystkie caudy w dół w głosie Baſso po prawej	!	!	!	!	!	!	!
!	!	!	!	!	!	!LO:TX:a:Bi:t=Andante Tacet	!LO:TX:a:Bi:t=Andante Tace
!LO:TX:a:Bi:t=Andante	!	!	!	!LO:TX:a:Bi:t=Andante	!	!	!
!	!	!	!	!	!LO:DY:b:t=%sia	!	!
8r	.	16ggT>\LL	.	16gg\LL	p	8ryy	8ryy
.	.	(>32ff#\L	.	32ff#\L	.	.	.
.	.	32gg\JJJ)	.	32gg\JJJ	.	.	.
=1	=1	=1	=1	=1	=1	=1	=1
8r	.	4dd\	.	4dd\	.	2ryy	2ryy
!	!LO:DY:b:t=%s&colon;	!	!	!	!	!	!
8G\L	p	.	.	.	.	.	.
8B\	.	8r	.	8r	.	.	.
8G\J	.	16ggT>\LL	.	16gg\LL	.	.	.
.	.	(>32ff#\L	.	32ff#\L	.	.	.
.	.	32gg\JJJ)	.	32gg\JJJ	.	.	.
=2	=2	=2	=2	=2	=2	=2	=2
8r	.	4ee\	.	4ee\	.	2ryy	2ryy
8C/L	.	.	.	.	.	.	.
8E/	.	8r	.	8r	.	.	.
8C/J	.	16ggT>\LL	.	16gg\LL	.	.	.
.	.	(32ff#\L	.	32ff#\L	.	.	.
.	.	32gg\JJJ)	.	32gg\JJJ	.	.	.
=3	=3	=3	=3	=3	=3	=3	=3
8BB/L	.	(>8.dd\L	.	8.dd\L	.	2ryy	2ryy
8C/	.	.	.	.	.	.	.
.	.	16ee\Jk)	.	16ee\Jk	.	.	.
8D/	.	16dd\LL	.	16dd\LL	.	.	.
.	.	(>16cc\	.	16cc\	.	.	.
8DD/J	.	16b\	.	16b\	.	.	.
.	.	16a\JJ)	.	16a\JJ	.	.	.
=4	=4	=4	=4	=4	=4	=4	=4
8GG/L	.	8g/L	.	8g/L	.	2ryy	2ryy
8D/	.	8d/	.	8d/	.	.	.
8G/J	.	8G/J	.	8G/J	.	.	.
!	!	!	!	!LO:N:vis=16.	!	!	!
8r	.	16ggT>\LL	.	16ggT>\LL	.	.	.
.	.	(>32ff#\L	.	32ff#\L	.	.	.
.	.	32gg\JJJ)	.	32gg\JJJ	.	.	.
=5	=5	=5	=5	=5	=5	=5	=5
8r	.	4dd\	.	4dd\	.	2ryy	2ryy
8G\L	.	.	.	.	.	.	.
8B\	.	8r	.	8r	.	.	.
8G\J	.	16ggT>\LL	.	16gg\LL	.	.	.
.	.	(>32ff#\L	.	32ff#\L	.	.	.
.	.	32gg\JJJ)	.	32gg\JJJ	.	.	.
=6	=6	=6	=6	=6	=6	=6	=6
8r	.	4ee\	.	4ee\	.	2ryy	2ryy
8C\L	.	.	.	.	.	.	.
8E\	.	8r	.	8r	.	.	.
8c\J	.	16gg\LL	.	16ggT>\LL	.	.	.
.	.	32ff#\L	.	32ff#\L	.	.	.
.	.	32gg\JJJ	.	32gg\JJJ	.	.	.
=7	=7	=7	=7	=7	=7	=7	=7
!LO:TX:a:t=P:problem=mixed beam	!	!	!	!	!	!	!
8B\L	.	8.dd\L	.	8.dd\L	.	2ryy	2ryy
8c\	.	.	.	.	.	.	.
.	.	16ee\Jk	.	16ee\Jk	.	.	.
8d\	.	16dd\LL	.	16dd\LL	.	.	.
.	.	16cc\	.	16cc\	.	.	.
8D/J	.	16b\	.	16b\	.	.	.
.	.	16a\JJ	.	16a\JJ	.	.	.
!	!	!LO:LB:g=original	!	!LO:LB:g=original	!	!	!
=8	=8	=8	=8	=8	=8	=8	=8
!LO:TX:a:t=P:problem=mixed beam	!	!	!	!	!	!	!
8G\L	.	4g/	.	4g/	.	2ryy	2ryy
8D\	.	.	.	.	.	.	.
8GG/J	.	4r	.	4r	.	.	.
8r	.	.	.	.	.	.	.
=9	=9	=9	=9	=9	=9	=9	=9
*	*	*^	*	*^	*	*	*
!	!LO:DY:a:t=%s&colon;	!	!	!	!	!	!	!	!
8r	f	4.d/	4.c\	.	4.d/	4.c\	.	2ryy	2ryy
8D\L	.	.	.	.	.	.	.	.	.
8F#\	.	.	.	.	.	.	.	.	.
8D\J	.	(>16ee\LL	8ryy	.	(>16ee\LL	8ryy	.	.	.
.	.	16cc\JJ)	.	.	16cc\JJ)	.	.	.	.
!LO:LB:g=original	!	!	!	!	!	!	!	!	!
*	*	*v	*v	*	*	*	*	*	*
*	*	*	*	*v	*v	*	*	*
=10	=10	=10	=10	=10	=10	=10	=10
8r	.	32b\LLL	.	(>16b\LL	.	2ryy	2ryy
.	.	(>32cc\	.	.	.	.	.
.	.	32dd\	.	16cc\	.	.	.
.	.	32ee\JJ)	.	.	.	.	.
8G\L	.	8dd\J	.	16dd\	.	.	.
.	.	.	.	16ee\JJ)	.	.	.
8B\	.	4r	.	8dd\	.	.	.
8G\J	.	.	.	8r	.	.	.
=11	=11	=11	=11	=11	=11	=11	=11
*	*	*^	*	*^	*	*	*
8r	.	4.d/	4.c\	.	4.d/	4.c\	.	2ryy	2ryy
8D\L	.	.	.	.	.	.	.	.	.
8F#\	.	.	.	.	.	.	.	.	.
8D\J	.	(>16ee\LL	8ryy	.	(>16ee\LL	8ryy	.	.	.
.	.	16cc\JJ)	.	.	16cc\JJ)	.	.	.	.
*	*	*v	*v	*	*	*	*	*	*
*	*	*	*	*v	*v	*	*	*
=12	=12	=12	=12	=12	=12	=12	=12
8r	.	(>32b\LLL	.	(16b\LL	.	2ryy	2ryy
.	.	32cc\	.	.	.	.	.
.	.	32dd\	.	16cc\	.	.	.
.	.	32ee\JJ)	.	.	.	.	.
8G\L	.	8dd\J	.	16dd\	.	.	.
.	.	.	.	16ee\JJ)	.	.	.
8B\	.	4r	.	8dd\	.	.	.
8G\J	.	.	.	8r	.	.	.
=13	=13	=13	=13	=13	=13	=13	=13
*	*	*Xtuplet	*	*	*	*	*
!LO:TX:a:t=P:problem=mixed beam	!	!	!	!	!	!	!
8C/L	.	8r	.	8r	.	2ryy	2ryy
!	!	!	!	!LO:TUP:a:problem=klamra łukowa	!	!	!
8c\	.	24ee\LL	.	24ee\LL	.	.	.
.	.	24ff#\	.	24ff#\	.	.	.
.	.	24gg\JJ	.	24gg\JJ	.	.	.
!	!	!	!	!LO:TUP:a:problem=klamra łukowa	!	!	!
8d\	.	24ff#\LL	.	24ff#\LL	.	.	.
.	.	24ee\	.	24ee\	.	.	.
.	.	24dd\JJ	.	24dd\JJ	.	.	.
!	!	!	!	!LO:TUP:a:problem=klamra łukowa	!	!	!
8D/J	.	24cc\LL	.	24cc\LL	.	.	.
.	.	24b\	.	24b\	.	.	.
.	.	24a\JJ	.	24a\JJ	.	.	.
=14	=14	=14	=14	=14	=14	=14	=14
8G\L	.	8g/L	.	8g/L	.	2ryy	2ryy
8D\	.	8d/	.	8d/	.	.	.
8GG\J	.	8G/J	.	8G/J	.	.	.
8r	.	8r	.	8r	.	.	.
=15:|!|:;>	=15:|!|:	=15:|!|:;>	=15:|!|:	=15:|!|:;>	=15:|!|:	=15:|!|:	=15:|!|:
!LO:N:vis=00	!	!	!	!	!	!	!
0r	.	4.b/	p	4.dd\	p	2ryy	2ryy
.	.	16g/LL	.	(>16b\LL	.	.	.
.	.	16b/JJ	.	16dd\JJ)	.	.	.
=16	=16	=16	=16	=16	=16	=16	=16
.	.	4b/	.	4dd\	.	2ryy	2ryy
.	.	8a/L	.	8cc\L	.	.	.
.	.	(<16f#/L	.	16a\L	.	.	.
.	.	16a/JJ)	.	16cc\JJ	.	.	.
=17	=17	=17	=17	=17	=17	=17	=17
.	.	8.g/L	.	8.b\L	.	2ryy	2ryy
.	.	32a/LL	.	32cc\LL	.	.	.
.	.	32b/JJJ	.	32dd\JJJ	.	.	.
.	.	8a/L	.	8cc\L	.	.	.
.	.	8g/J	.	8b\J	.	.	.
=18	=18	=18	=18	=18	=18	=18	=18
.	.	(<4g/	.	4b/	.	2ryy	2ryy
.	.	8f#/)	.	8a/	.	.	.
.	.	8r	.	8r	.	.	.
!	!	!	!	!LO:LB:g=original	!	!	!
=19	=19	=19	=19	=19	=19	=19	=19
*	*	*	*	*Xtuplet	*	*	*
!LO:N:vis=0	!	!	!	!	!	!	!
1r	.	4.b\	.	4.dd\	.	2ryy	2ryy
.	.	16b\LL	.	24gg\LL	.	.	.
.	.	.	.	24dd\	.	.	.
.	.	16g\JJ	.	.	.	.	.
.	.	.	.	24b\JJ	.	.	.
!	!	!LO:LB:g=original	!	!	!	!	!
=20	=20	=20	=20	=20	=20	=20	=20
.	.	4g/	.	4b\	.	2ryy	2ryy
.	.	8a/L	.	8cc\L	.	.	.
.	.	16f#/L	.	16a\L	.	.	.
.	.	16a/JJ	.	16cc\JJ	.	.	.
=21	=21	=21	=21	=21	=21	=21	=21
!LO:TX:a:t=P:problem=mixed beam	!	!	!	!	!	!	!
!	!LO:DY:a:t=%s&colon;	!	!	!	!	!	!
8G\L	p	24g/LL	.	24b\LL	.	2ryy	2ryy
.	.	24a/	.	24cc\	.	.	.
.	.	24b/JJ	.	24dd\JJ	.	.	.
8C/J	.	24ee\LL	.	24ee\LL	.	.	.
.	.	24cc\	.	24cc\	.	.	.
.	.	24a\JJ	.	24a\JJ	.	.	.
!LO:TX:a:t=P:problem=mixed beam	!	!	!	!	!	!	!
8D\L	.	24dd\LL	.	24dd\LL	.	.	.
.	.	24b\	.	24b\	.	.	.
.	.	24g\JJ	.	24g\JJ	.	.	.
8DD/J	.	24cc\LL	.	24cc\LL	.	.	.
.	.	24a\	.	24a\	.	.	.
.	.	24f#\JJ	.	24f#\JJ	.	.	.
=22	=22	=22	=22	=22	=22	=22	=22
!LO:TX:a:t=P:problem=mixed beam	!	!LO:TX:a:t=P:problem=mixed beam	!	!LO:TX:a:t=P:problem=mixed beam	!	!	!
8GG/L	.	8g/L	.	8g/L	.	2ryy	2ryy
8BB/	.	16gg\L	.	16gg\L	.	.	.
.	.	32ff#\L	.	32ff#\L	.	.	.
.	.	32gg\JJJ	.	32gg\JJJ	.	.	.
8C/	.	8ee\L	.	8ee\L	.	.	.
8c\J	.	16gg\L	.	16gg\L	.	.	.
.	.	32ff#\L	.	32ff#\L	.	.	.
.	.	32gg\JJJ	.	32gg\JJJ	.	.	.
=23	=23	=23	=23	=23	=23	=23	=23
!LO:TX:a:t=P:problem=mixed beam	!	!	!	!	!	!	!
!	!LO:DY:a:t=%s&colon;	!	!	!	!	!	!
8B\L	p	8.dd\L	.	8.dd\L	.	2ryy	2ryy
8c\	.	.	.	.	.	.	.
.	.	16ee\Jk	.	16ee\Jk	.	.	.
8d\	.	16ee\LL	.	16ee\LL	.	.	.
.	.	(>16dd\	.	16dd\	.	.	.
8D/J	.	16a\	.	16a\	.	.	.
.	.	16cc\JJ)	.	16cc\JJ	.	.	.
=24	=24	=24	=24	=24	=24	=24	=24
!LO:TX:a:t=P:problem=mixed beam	!	!	!	!	!	!	!
8G\L	.	8b\L	.	8b\L	.	2ryy	2ryy
8B\	.	16gg\L	.	16ggT>\L	.	.	.
.	.	32ff#\L	.	32ff#\L	.	.	.
.	.	32gg\JJJ	.	32gg\JJJ	.	.	.
8c\	.	8ee\L	.	8ee\L	.	.	.
8C/J	.	16gg\L	.	16gg\L	.	.	.
.	.	32ff#\L	.	32ff#\L	.	.	.
.	.	32gg\JJJ	.	32gg\JJJ	.	.	.
!LO:LB:g=original	!	!	!	!	!	!	!
=25	=25	=25	=25	=25	=25	=25	=25
8BB/L	.	8.dd\L	.	8.dd\L	.	2ryy	2ryy
8C/	.	.	.	.	.	.	.
.	.	16ee\Jk	.	16ee\Jk	.	.	.
8D/	.	16ee\LL	.	16ee\LL	.	.	.
.	.	(>16dd\	.	(>16dd\	.	.	.
8F#/J	.	16a\	.	16a\	.	.	.
.	.	16cc\JJ)	.	16cc\JJ)	.	.	.
=26	=26	=26	=26	=26	=26	=26	=26
.	.	8qqcc/	.	8qqcc/	.	.	.
8G\L	.	8.b\L	.	8.b\L	.	2ryy	2ryy
8E\	.	.	.	.	.	.	.
.	.	16cc\Jk	.	16cc\Jk	.	.	.
8C\	.	16cc\LL	.	16cc\LL	.	.	.
.	.	16b\	.	(>16b\	.	.	.
8D\J	.	16f#\	.	16f#\	.	.	.
.	.	16a\JJ	.	16a\JJ)	.	.	.
!	!	!	!	!LO:LB:g=original	!	!	!
=27	=27	=27	=27	=27	=27	=27	=27
!LO:TX:a:t=P:problem=mixed beam	!	!	!	!	!	!	!
8G\L	.	8g/L	.	8g/L	.	2ryy	2ryy
8D\	.	8d/	.	8d/	.	.	.
8GG/J	.	8G/J	.	8G/J	.	.	.
8r	.	8r	.	8r	.	.	.
*	*	*tuplet	*	*tuplet	*	*	*
!LO:SIC:o=&colon;||&colon;:v:t=ozdobna kreska taktowa &colon;||&colon;	!	!LO:SIC:o=&colon;||&colon;:v:t=ozdobna kreska taktowa &colon;||&colon;	!	!LO:SIC:o=&colon;||&colon;:v:t=ozdobna kreska taktowa &colon;||&colon;	!	!	!
==	==	==;>	==	==;>	==	==	==
*-	*-	*-	*-	*-	*-	*-	*-
!!!system-decoration: [(s1,s2)][(s3,s4,s5)]
!!!RDF**kern: > = above
!!!RDF**kern: < = below
!!!EED: Wojciech Jakubiak-Danek
!!!EEV: 2020-10-14
!!!ENC: Andrzej Borzym
!!!END: 2020-06-04
